assets/icons/qvision/swap_vertical_circle.svg

<svg width="24" height="24" viewBox="0 0 24 24" fill="none" xmlns="http://www.w3.org/2000/svg">
<g clip-path="url(#clip0_147_4823)">
<path d="M12 2C6.48 2 2 6.48 2 12C2 17.52 6.48 22 12 22C17.52 22 22 17.52 22 12C22 6.48 17.52 2 12 2ZM6.5 9L10 5.5L13.5 9H11V13H9V9H6.5ZM17.5 15L14 18.5L10.5 15H13V11H15V15H17.5Z" fill="#323232"/>
</g>
<defs>
<clipPath id="clip0_147_4823">
<rect width="24" height="24" fill="white"/>
</clipPath>
</defs>
</svg>

<svg xmlns="http://www.w3.org/2000/svg" height="24" viewBox="0 0 24 24" width="24"><path d="M0 0h24v24H0z" fill="none"/><path d="M12 2C6.48 2 2 6.48 2 12s4.48 10 10 10 10-4.48 10-10S17.52 2 12 2zM6.5 9L10 5.5 13.5 9H11v4H9V9H6.5zm11 6L14 18.5 10.5 15H13v-4h2v4h2.5z"/></svg>
